64x64/apps/lutris_the-sims-3.svg

<svg width="64" height="64" version="1.1" xmlns="http://www.w3.org/2000/svg">
 <rect transform="matrix(0,-1,-1,0,0,0)" x="-60.999996" y="-60" width="56" height="56" rx="2.8" ry="2.8" style="opacity:.2"/>
 <rect transform="matrix(0,-1,-1,0,0,0)" x="-59.999996" y="-60" width="56" height="56" rx="2.8" ry="2.8" style="fill:#90decd"/>
 <path d="M 6.8007812,4.00221 C 5.2495813,4.00221 4,5.2517913 4,6.8029912 v 1 C 4,6.2517913 5.2495813,5.00221 6.8007812,5.00221 H 57.199219 C 58.750419,5.00221 60,6.2517913 60,7.8029912 v -1 C 60,5.2517913 58.750419,4.00221 57.199219,4.00221 Z" style="fill:#f4f4f7;opacity:.2"/>
 <path d="m32 11-11 22 11 22 11-22z" style="opacity:.1"/>
 <path d="m32 10-11 22 11 22 11-22z" style="fill:#72be45"/>
 <path d="m27 32h10l-5-22z" style="fill:#a7e077"/>
 <path d="m21 32 11 22-5-22zm11 22 11-22h-6z" style="fill:#008000;opacity:.4"/>
 <path d="m32 10-11 22 0.25 0.5 10.75-21.5 10.75 21.5 0.25-0.5-11-22z" style="fill:#f4f4f7;opacity:.2"/>
</svg>

<svg width="64" height="64" xmlns="http://www.w3.org/2000/svg"><rect transform="matrix(0 -1 -1 0 0 0)" x="-61" y="-60" width="56" height="56" rx="2.8" ry="2.8" style="opacity:.2"/><rect transform="matrix(0 -1 -1 0 0 0)" x="-60" y="-60" width="56" height="56" rx="2.8" ry="2.8" style="fill:#90decd"/><path d="M6.8 4.002c-1.55 0-2.8 1.25-2.8 2.801v1c0-1.551 1.25-2.8 2.8-2.8h50.4c1.55 0 2.8 1.249 2.8 2.8v-1c0-1.551-1.25-2.8-2.8-2.8z" style="fill:#f4f4f7;opacity:.2"/><path d="M32 11 21 33l11 22 11-22z" style="opacity:.1"/><path d="M32 10 21 32l11 22 11-22z" style="fill:#72be45"/><path d="M27 32h10l-5-22z" style="fill:#a7e077"/><path d="m21 32 11 22-5-22zm11 22 11-22h-6z" style="fill:green;opacity:.4"/><path d="M32 10 21 32l.25.5L32 11l10.75 21.5.25-.5-11-22z" style="fill:#f4f4f7;opacity:.2"/></svg>
